icon-themes/sifr_svg/cmd/sc_neutralcellstyles.svg

<svg viewBox="0 0 16 16" xmlns="http://www.w3.org/2000/svg"><path d="m10 2c-1.1 0-2 .9-2 2v8c0 1.1.9 2 2 2h3c1.1 0 2-.9 2-2v-8c0-1.1-.9-2-2-2zm-7 1v2h-2v2h2v2h2v-2h2v-2h-2v-2zm7 1h3v8h-3zm-9 7v2h6v-2z" fill="#555753"/></svg>

<svg xmlns="http://www.w3.org/2000/svg" viewBox="0 0 16 16">
  <path
     style="fill:#555753"
     d="M 10,2 C 8.9,2 8,2.9 8,4 v 8 c 0,1.1 0.9,2 2,2 h 3 c 1.1,0 2,-0.9 2,-2 V 4 C 15,2.9 14.1,2 13,2 Z M 3,3 V 5 H 1 V 7 H 3 V 9 H 5 V 7 H 7 V 5 H 5 V 3 Z m 7,1 h 3 v 8 h -3 z m -9,7 v 2 h 6 v -2 z"
     />
</svg>
